X:1
T:Samolynn Waltz
R:Waltz
C:© Mark Schatz
M:3/4
Q:1/4=120
Z: Contributed 2015-10-18 12:57:47 by MJ m@m.com
K:F
AB|A3Ade|f2d2d2|c3dBc|A4AB|A3Ade|f2d2A2|GBe2d2|^c4 AB|
A3Ade|f2d2d2|g3fed|A4A2|Bdg2f2|Adg2f2|e2a2gf|d4dc|
cG ce gf|d4f2|ec eg c'g|a6|cG ce gf|dA df af|e2a2gf|d4dc|
cG ce gf|d4f2|ec eg c'g|a6|cG ce gf|dA df af|e2a2gf|d4|
